img/one_place_icon.svg

<?xml version="1.0" encoding="UTF-8"?>
<svg width="345" height="406.84" viewBox="0 0 345 406.838" xmlns="http://www.w3.org/2000/svg">
<defs>
<clipPath id="a">
<path d="M345,0H0V406.838H345Z" fill="none" data-name="Path 197"/>
</clipPath>
</defs>
<g clip-path="url(#a)" fill-rule="evenodd">
<path d="M345,0H0V406.838H345Z" fill="rgba(0,0,0,0)" data-name="Path 178"/>
<path transform="translate(192.38 121.37)" d="m95.293 142.42l-70.633-10.7-11 72.633 26.483-20.092 57.57 80.455 28.669-21.75-57.572-80.454z" fill="#f6d55c" data-name="Path 179"/>
<path transform="translate(192.38 121.37)" d="m95.293 142.42l-70.633-10.7-11 72.633 26.483-20.092 57.57 80.455 28.669-21.75-57.572-80.454z" fill="none" data-name="Path 180"/>
<path transform="translate(202.1 31.024)" d="m9.679 82.664l4.3 55.353 53.009 10.256-18.6-21.3 75.912-70.285-20.1-23.016-75.92 70.289z" fill="#20639b" data-name="Path 181"/>
<path transform="translate(202.1 31.024)" d="m9.679 82.664l4.3 55.353 53.009 10.256-18.6-21.3 75.912-70.285-20.1-23.016-75.92 70.289z" fill="none" data-name="Path 182"/>
<path transform="translate(-91.784 5.61)" d="m150.91 120.8 78.486 39.029-16.82-88.067-15.517 12.338-58.495-78.012-30.631 24.358l58.494 78.012z" fill="#3caea3" data-name="Path 183"/>
<path transform="translate(-91.784 5.61)" d="m150.91 120.8 78.486 39.029-16.82-88.067-15.517 12.338-58.495-78.012-30.631 24.358l58.494 78.012z" fill="none" data-name="Path 184"/>
<path transform="translate(-82.93 124.42)" d="M216.044,199.553l4.176-64.513-61.969,10.68L175,161.324l-66.9,76.051L132.393,260l66.9-76.051Z" fill="#ed553b" data-name="Path 185"/>
<path transform="translate(-82.93 124.42)" d="M216.044,199.553l4.176-64.513-61.969,10.68L175,161.324l-66.9,76.051L132.393,260l66.9-76.051Z" fill="none" data-name="Path 186"/>
<path transform="translate(208.08 87.881)" d="M32.46,95.381,11.095,123.419,32.46,151.457v-18.2h83.146V113.583H32.46Z" fill="#20639b" data-name="Path 187"/>
<path transform="translate(208.08 87.881)" d="M32.46,95.381,11.095,123.419,32.46,151.457v-18.2h83.146V113.583H32.46Z" fill="none" data-name="Path 188"/>
<path transform="translate(71.837 16.499)" d="M77.969,96.356l22.693,41.118,22.693-41.118H107.84V17.907H93.484V96.356Z" fill="#20639b" data-name="Path 189"/>
<path transform="translate(71.837 16.499)" d="M77.969,96.356l22.693,41.118,22.693-41.118H107.84V17.907H93.484V96.356Z" fill="none" data-name="Path 190"/>
<path transform="translate(-103.18 86.707)" d="m195.19 160.46l33.765-44.072-50.1-22.285 5.087 20.657-69.839 18.137 6.166 25.042 69.834-18.137z" fill="#ed553b" data-name="Path 191"/>
<path transform="translate(-103.18 86.707)" d="m195.19 160.46l33.765-44.072-50.1-22.285 5.087 20.657-69.839 18.137 6.166 25.042 69.834-18.137z" fill="none" data-name="Path 192"/>
<path transform="translate(75.463 120.05)" d="m129.8 156.84l-30.4-26.548-26.67 30.535 17.54-1.226 7.268 110.96 21.985-1.536-7.268-110.96z" fill="#f6d55c" data-name="Path 193"/>
<path transform="translate(75.463 120.05)" d="m129.8 156.84l-30.4-26.548-26.67 30.535 17.54-1.226 7.268 110.96 21.985-1.536-7.268-110.96z" fill="none" data-name="Path 194"/>
<path transform="translate(65.309 79.968)" d="m143.5 123.12a36.317 36.317 0 0 0 -36.309 -36.325 36.317 36.317 0 0 0 -36.309 36.325 36.317 36.317 0 0 0 36.309 36.325 36.317 36.317 0 0 0 36.309 -36.325z" fill="#cd5f95" data-name="Path 195"/>
<path transform="translate(65.309 79.968)" d="m143.5 123.12a36.317 36.317 0 0 0 -36.309 -36.325 36.317 36.317 0 0 0 -36.309 36.325 36.317 36.317 0 0 0 36.309 36.325 36.317 36.317 0 0 0 36.309 -36.325z" fill="none" data-name="Path 196"/>
</g>
</svg>

<svg xmlns="http://www.w3.org/2000/svg" xmlns:xlink="http://www.w3.org/1999/xlink" width="345" height="406.838" viewBox="0 0 345 406.838">
  <defs>
    <clipPath id="clip-path">
      <path id="Path_197" data-name="Path 197" d="M345,0H0V406.838H345Z" fill="none"/>
    </clipPath>
  </defs>
  <g id="one_place_icon" clip-path="url(#clip-path)">
    <path id="Path_178" data-name="Path 178" d="M345,0H0V406.838H345Z" fill="rgba(0,0,0,0)" fill-rule="evenodd"/>
    <path id="Path_179" data-name="Path 179" d="M95.293,142.425l-70.633-10.7-11,72.633,26.483-20.092,57.57,80.455,28.669-21.75L68.81,162.517Z" transform="translate(192.379 121.368)" fill="#f6d55c" fill-rule="evenodd"/>
    <path id="Path_180" data-name="Path 180" d="M95.293,142.425l-70.633-10.7-11,72.633,26.483-20.092,57.57,80.455,28.669-21.75L68.81,162.517Z" transform="translate(192.379 121.368)" fill="none" fill-rule="evenodd"/>
    <path id="Path_181" data-name="Path 181" d="M9.679,82.664l4.3,55.353,53.009,10.256-18.6-21.3L124.3,56.688,104.2,33.672l-75.92,70.289Z" transform="translate(202.098 31.024)" fill="#20639b" fill-rule="evenodd"/>
    <path id="Path_182" data-name="Path 182" d="M9.679,82.664l4.3,55.353,53.009,10.256-18.6-21.3L124.3,56.688,104.2,33.672l-75.92,70.289Z" transform="translate(202.098 31.024)" fill="none" fill-rule="evenodd"/>
    <path id="Path_183" data-name="Path 183" d="M150.914,120.8,229.4,159.829,212.58,71.762,197.063,84.1,138.568,6.088,107.937,30.446l58.494,78.012Z" transform="translate(-91.784 5.61)" fill="#3caea3" fill-rule="evenodd"/>
    <path id="Path_184" data-name="Path 184" d="M150.914,120.8,229.4,159.829,212.58,71.762,197.063,84.1,138.568,6.088,107.937,30.446l58.494,78.012Z" transform="translate(-91.784 5.61)" fill="none" fill-rule="evenodd"/>
    <path id="Path_185" data-name="Path 185" d="M216.044,199.553l4.176-64.513-61.969,10.68L175,161.324l-66.9,76.051L132.393,260l66.9-76.051Z" transform="translate(-82.93 124.422)" fill="#ed553b" fill-rule="evenodd"/>
    <path id="Path_186" data-name="Path 186" d="M216.044,199.553l4.176-64.513-61.969,10.68L175,161.324l-66.9,76.051L132.393,260l66.9-76.051Z" transform="translate(-82.93 124.422)" fill="none" fill-rule="evenodd"/>
    <path id="Path_187" data-name="Path 187" d="M32.46,95.381,11.095,123.419,32.46,151.457v-18.2h83.146V113.583H32.46Z" transform="translate(208.078 87.881)" fill="#20639b" fill-rule="evenodd"/>
    <path id="Path_188" data-name="Path 188" d="M32.46,95.381,11.095,123.419,32.46,151.457v-18.2h83.146V113.583H32.46Z" transform="translate(208.078 87.881)" fill="none" fill-rule="evenodd"/>
    <path id="Path_189" data-name="Path 189" d="M77.969,96.356l22.693,41.118,22.693-41.118H107.84V17.907H93.484V96.356Z" transform="translate(71.837 16.499)" fill="#20639b" fill-rule="evenodd"/>
    <path id="Path_190" data-name="Path 190" d="M77.969,96.356l22.693,41.118,22.693-41.118H107.84V17.907H93.484V96.356Z" transform="translate(71.837 16.499)" fill="none" fill-rule="evenodd"/>
    <path id="Path_191" data-name="Path 191" d="M195.187,160.463l33.765-44.072-50.1-22.285,5.087,20.657L114.1,132.9l6.166,25.042L190.1,139.805Z" transform="translate(-103.175 86.707)" fill="#ed553b" fill-rule="evenodd"/>
    <path id="Path_192" data-name="Path 192" d="M195.187,160.463l33.765-44.072-50.1-22.285,5.087,20.657L114.1,132.9l6.166,25.042L190.1,139.805Z" transform="translate(-103.175 86.707)" fill="none" fill-rule="evenodd"/>
    <path id="Path_193" data-name="Path 193" d="M129.8,156.839l-30.4-26.548L72.73,160.826,90.27,159.6l7.268,110.964,21.985-1.536-7.268-110.964Z" transform="translate(75.463 120.047)" fill="#f6d55c" fill-rule="evenodd"/>
    <path id="Path_194" data-name="Path 194" d="M129.8,156.839l-30.4-26.548L72.73,160.826,90.27,159.6l7.268,110.964,21.985-1.536-7.268-110.964Z" transform="translate(75.463 120.047)" fill="none" fill-rule="evenodd"/>
    <path id="Path_195" data-name="Path 195" d="M143.5,123.117h0a36.317,36.317,0,0,0-36.309-36.325h0a36.317,36.317,0,0,0-36.309,36.325h0a36.317,36.317,0,0,0,36.309,36.325h0A36.317,36.317,0,0,0,143.5,123.117Z" transform="translate(65.309 79.968)" fill="#cd5f95" fill-rule="evenodd"/>
    <path id="Path_196" data-name="Path 196" d="M143.5,123.117h0a36.317,36.317,0,0,0-36.309-36.325h0a36.317,36.317,0,0,0-36.309,36.325h0a36.317,36.317,0,0,0,36.309,36.325h0A36.317,36.317,0,0,0,143.5,123.117Z" transform="translate(65.309 79.968)" fill="none" fill-rule="evenodd"/>
  </g>
</svg>
